dist/images/heart-shape.svg

<svg width="45" height="45" viewBox="0 0 45 45" fill="none" xmlns="http://www.w3.org/2000/svg">
<path d="M41.8108 6.32825C39.6844 4.25199 36.7468 3.21429 32.9964 3.21429C31.9585 3.21429 30.8993 3.39425 29.8197 3.75399C28.7397 4.11398 27.735 4.59967 26.8067 5.21069C25.8772 5.82154 25.0784 6.39518 24.4083 6.93074C23.7389 7.46647 23.1026 8.0358 22.5 8.6383C21.8972 8.0358 21.261 7.46647 20.5916 6.93074C19.9217 6.39518 19.1225 5.82189 18.1932 5.21069C17.264 4.59941 16.2595 4.11407 15.1798 3.75399C14.1001 3.39434 13.0411 3.21429 12.0032 3.21429C8.25307 3.21429 5.3152 4.25225 3.18916 6.32825C1.06311 8.40407 0 11.2834 0 14.9664C0 16.0881 0.197019 17.2436 0.590265 18.4316C0.983511 19.6203 1.43164 20.6332 1.93378 21.4701C2.43582 22.3069 3.00515 23.123 3.64133 23.9183C4.27751 24.7135 4.74244 25.2615 5.03506 25.5628C5.32795 25.8642 5.55822 26.082 5.7256 26.2161L21.395 41.3333C21.6964 41.6347 22.0647 41.7858 22.4999 41.7858C22.9351 41.7858 23.3036 41.6347 23.6049 41.3333L39.2494 26.2658C43.0832 22.4327 44.9999 18.6659 44.9999 14.966C45 11.2827 43.937 8.40372 41.8108 6.32825ZM37.0646 23.9057L22.5 37.9429L7.91049 23.8803C4.77982 20.7505 3.21475 17.7786 3.21475 14.966C3.21475 13.6102 3.39471 12.4131 3.75444 11.3754C4.11444 10.3375 4.5748 9.51274 5.1356 8.90172C5.69649 8.29052 6.37857 7.79287 7.18213 7.40754C7.98613 7.02256 8.77288 6.76301 9.54284 6.62914C10.3128 6.49545 11.133 6.42852 12.0036 6.42852C12.874 6.42852 13.8117 6.64172 14.8162 7.06874C15.8204 7.49559 16.7454 8.03132 17.5907 8.67576C18.4362 9.32065 19.1603 9.92323 19.7632 10.4839C20.3658 11.045 20.8678 11.5595 21.2697 12.0283C21.5708 12.3967 21.9813 12.5809 22.5001 12.5809C23.019 12.5809 23.4291 12.3967 23.7306 12.0283C24.1324 11.5595 24.6348 11.0447 25.2373 10.4839C25.84 9.92323 26.5641 9.32091 27.4093 8.67576C28.2548 8.03132 29.1797 7.49559 30.1845 7.06874C31.1886 6.64181 32.1266 6.42852 32.9971 6.42852C33.8675 6.42852 34.6875 6.49545 35.4578 6.62914C36.228 6.76292 37.0148 7.02256 37.8185 7.40754C38.6221 7.79279 39.3042 8.29079 39.8649 8.90172C40.4257 9.51274 40.8863 10.3375 41.2463 11.3754C41.6056 12.4131 41.7856 13.6102 41.7856 14.966C41.7854 17.7786 40.2121 20.7587 37.0646 23.9057Z" fill="white"/>
</svg>

<svg width="45" height="45" fill="none" xmlns="http://www.w3.org/2000/svg"><path d="M41.81 6.328c-2.126-2.076-5.063-3.114-8.814-3.114a10 10 0 0 0-3.176.54c-1.08.36-2.085.846-3.013 1.457-.93.61-1.729 1.184-2.399 1.72A23.196 23.196 0 0 0 22.5 8.638a23.23 23.23 0 0 0-1.908-1.707 32.249 32.249 0 0 0-2.399-1.72 12.857 12.857 0 0 0-3.013-1.457 10.01 10.01 0 0 0-3.177-.54c-3.75 0-6.688 1.038-8.814 3.114C1.063 8.404 0 11.283 0 14.966c0 1.122.197 2.278.59 3.466.394 1.188.842 2.201 1.344 3.038a22.224 22.224 0 0 0 1.707 2.448c.637.796 1.101 1.344 1.394 1.645.293.301.523.519.69.653l15.67 15.117c.301.302.67.453 1.105.453.435 0 .804-.151 1.105-.453l15.644-15.067c3.834-3.833 5.75-7.6 5.75-11.3.001-3.683-1.062-6.562-3.188-8.638Zm-4.745 17.578L22.5 37.943 7.91 23.88c-3.13-3.13-4.695-6.101-4.695-8.914 0-1.356.18-2.553.54-3.59.36-1.038.82-1.863 1.38-2.474a6.634 6.634 0 0 1 2.047-1.494 9.073 9.073 0 0 1 2.36-.779c.77-.134 1.591-.2 2.462-.2.87 0 1.808.213 2.812.64a12.84 12.84 0 0 1 2.775 1.607c.845.645 1.57 1.247 2.172 1.808a19.5 19.5 0 0 1 1.507 1.544c.3.369.711.553 1.23.553s.93-.184 1.23-.553a19.59 19.59 0 0 1 1.507-1.544 29.405 29.405 0 0 1 2.172-1.808c.846-.645 1.77-1.18 2.776-1.607 1.004-.427 1.942-.64 2.812-.64.87 0 1.69.066 2.46.2a9.057 9.057 0 0 1 2.361.779 6.634 6.634 0 0 1 2.047 1.494c.56.61 1.021 1.436 1.381 2.473.36 1.038.54 2.235.54 3.591 0 2.813-1.574 5.793-4.721 8.94Z" fill="#fff"/></svg>
